usr/share/icons/biglinux-icons-material-dark/22/actions/hotpixels.svg

<svg xmlns="http://www.w3.org/2000/svg" viewBox="0 0 22 22">
<defs id="defs3051">
<style id="current-color-scheme" type="text/css">
.ColorScheme-Text{color:#dedede}
</style>
</defs>
<path d="M3 3v16h16V3zm1 1h14v14H4z" class="ColorScheme-Text" style="fill:currentColor;fill-opacity:1;stroke:none"/>
<path d="M13 13v2h2v-2z" style="fill:#da4453;fill-opacity:1;stroke:none"/>
</svg>

<svg xmlns="http://www.w3.org/2000/svg" viewBox="0 0 22 22">
  <defs id="defs3051">
    <style type="text/css" id="current-color-scheme">
      .ColorScheme-Text {
        color:#dedede;
      }
      </style>
  </defs>
 <path 
     style="fill:currentColor;fill-opacity:1;stroke:none" 
     d="M 3 3 L 3 19 L 19 19 L 19 3 L 3 3 z M 4 4 L 18 4 L 18 18 L 4 18 L 4 4 z "
     class="ColorScheme-Text"
     />
    <path
     style="fill:#da4453;fill-opacity:1;stroke:none"
     d="M 13 13 L 13 15 L 15 15 L 15 13 L 13 13 z "
     />
</svg>
